X:0779
T:Tuath is Deas.
M:C|
L:1/8
Q:1/4=120
I: :: ||
Z:Jack Campin * www.campin.me.uk * 2009
K:G
g|G<GB>G c>BA<g|G<GB>G D>GB<G| c>AB>G        c>BA<g|e<g`d>B G2G:|
g|e<gd>B c>BA<g|e<gd>B d>efa |(b/a/g/f/) g>B c>BA<g|e<g`d<B d2dg|
  eg`dB  c>BA<g|e<gd<B d>eg>b| a<fg<B        c>BA<g|e<gTe>g d2d|]
<end>
<start>
